icons/cloud-offline-24.svg

<svg width="24" height="24" viewBox="0 0 24 24" fill="none" xmlns="http://www.w3.org/2000/svg">
<rect width="24" height="24" fill="white"/>
<path d="M4.60345 10.1071C4.60345 6.74704 7.38106 4 10.8362 4C14.2914 4 17.069 6.74704 17.069 10.1071C17.069 10.5758 17.0167 11.03 16.9181 11.4651C16.8265 11.869 17.0797 12.2708 17.4836 12.3624C17.8876 12.454 18.2893 12.2008 18.3809 11.7968C18.5042 11.2532 18.569 10.6876 18.569 10.1071C18.569 9.61437 18.5225 9.13347 18.4337 8.66832C20.7611 9.12491 22.5 11.1401 22.5 13.5357C22.5 16.1017 20.5055 18.2309 17.9289 18.4764C17.5165 18.5157 17.2141 18.8818 17.2534 19.2942C17.2927 19.7065 17.6588 20.0089 18.0711 19.9697C21.3879 19.6536 24 16.9045 24 13.5357C24 10.0955 21.3485 7.34524 17.9475 7.09067C16.7687 4.37466 14.0374 2.5 10.8362 2.5C6.5483 2.5 3.10345 5.86349 3.10345 10.1071C3.10345 10.2317 3.1065 10.3557 3.11254 10.4789C1.27961 11.2058 0 12.96 0 15.0595C0 17.8305 2.22911 20 5.01735 20H6C6.41421 20 6.75 19.6642 6.75 19.25C6.75 18.8358 6.41421 18.5 6 18.5H5.01724C3.06183 18.5 1.5 16.9469 1.5 15.0595C1.5 13.1722 3.06183 11.619 5.01724 11.619C5.79477 11.619 6.49941 11.8529 7.06945 12.2476C7.41 12.4834 7.87722 12.3984 8.11301 12.0579C8.3488 11.7173 8.26387 11.2501 7.92332 11.0143C7.10307 10.4464 6.1007 10.119 5.01724 10.119C4.87787 10.119 4.73988 10.1245 4.60351 10.1351L4.60345 10.1071Z" fill="#24292F"/>
<path d="M10.2803 16.2197C9.98744 15.9268 9.51256 15.9268 9.21967 16.2197C8.92678 16.5126 8.92678 16.9874 9.21967 17.2803L10.9393 19L9.21967 20.7197C8.92678 21.0126 8.92678 21.4874 9.21967 21.7803C9.51256 22.0732 9.98744 22.0732 10.2803 21.7803L12 20.0607L13.7197 21.7803C14.0126 22.0732 14.4874 22.0732 14.7803 21.7803C15.0732 21.4874 15.0732 21.0126 14.7803 20.7197L13.0607 19L14.7803 17.2803C15.0732 16.9874 15.0732 16.5126 14.7803 16.2197C14.4874 15.9268 14.0126 15.9268 13.7197 16.2197L12 17.9393L10.2803 16.2197Z" fill="#24292F"/>
</svg>

<svg xmlns="http://www.w3.org/2000/svg" width="24" height="24" viewBox="0 0 24 24"><path d="M0 0h24v24H0z"/><path d="M4.603 10.107C4.603 6.747 7.381 4 10.836 4c3.455 0 6.233 2.747 6.233 6.107 0 .469-.052.923-.15 1.358a.75.75 0 001.462.332 7.667 7.667 0 00.053-3.128c2.327.456 4.066 2.471 4.066 4.867 0 2.566-1.994 4.695-4.571 4.94a.75.75 0 00.142 1.494C21.388 19.654 24 16.904 24 13.536c0-3.44-2.651-6.19-6.052-6.445-1.18-2.716-3.91-4.591-7.112-4.591-4.288 0-7.733 3.363-7.733 7.607 0 .125.003.249.01.372A4.897 4.897 0 000 15.059C0 17.831 2.23 20 5.017 20H6a.75.75 0 000-1.5h-.983c-1.955 0-3.517-1.553-3.517-3.44 0-1.888 1.562-3.441 3.517-3.441a3.58 3.58 0 012.052.629.75.75 0 00.854-1.234 5.084 5.084 0 00-2.906-.895c-.14 0-.277.005-.413.016v-.028z"/><path d="M10.28 16.22a.75.75 0 10-1.06 1.06L10.94 19l-1.72 1.72a.75.75 0 101.06 1.06L12 20.06l1.72 1.72a.75.75 0 101.06-1.06L13.06 19l1.72-1.72a.75.75 0 10-1.06-1.06L12 17.94l-1.72-1.72z"/></svg>
